X:7876
T:Russian folk song
C:anon.
O:Russia
B:Gustav Lange: Praktisk Violinskole, I. Del
Z:Transcribed by Frank Nordberg - http://www.musicaviva.com
F:http://abc.musicaviva.com/tunes/russia/russian-song-01.abc
M:2/4
L:1/8
Q:1/4=100
K:A
Ec cB|AG/F/ EF/G/|Ac d>c|B2F2|Fd dc|cB AF|
EA B>c|A3z|AAGF|e2d2|GG c>B|B2A2|ccBA|
A2G2|CF A>G|F2 z2|BBcd|fe dB|Ec c>B|A3z|]
W:
W:
W:  From Musica Viva - http://www.musicaviva.com
W:  the Internet center for free sheet music downloads.

